Obsidian-SemiLight/actions/24s/draw-bezier-curves.svg

<svg viewBox="0 0 24 24" xmlns="http://www.w3.org/2000/svg"><path d="m18.5 4c-.65424 0-1.202197.418077-1.408203 1h-13.091797v1c3.601 0 6.5 2.899 6.5 6.5 0 1.905514-.8221148 3.601777-2.1210938 4.787109-.245727-.180239-.5487762-.287109-.8789062-.287109-.831 0-1.5.669-1.5 1.5s.669 1.5 1.5 1.5c.65424 0 1.2021971-.418077 1.4082031-1h4.0917969v1h3v-3h-3v1h-3.9121094c1.4791474-1.367931 2.4121094-3.317097 2.4121094-5.5 0-2.788667-1.5106675-5.207469-3.7578125-6.5h9.3496095c.206006.581923.753963 1 1.408203 1 .831 0 1.5-.669 1.5-1.5s-.669-1.5-1.5-1.5zm0 1c.277 0 .5.223.5.5s-.223.5-.5.5c-.06925 0-.135453-.0138275-.195312-.0390625-.17958-.075703-.304688-.2531875-.304688-.4609375 0-.06925.013832-.1354525.039062-.1953125.075701-.179578.253188-.3046875.460938-.3046875zm-11 13c.277 0 .5.223.5.5s-.223.5-.5.5-.5-.223-.5-.5.223-.5.5-.5zm6.5 0h1v1h-1z" fill="#4d4d4d"/></svg>

<svg xmlns="http://www.w3.org/2000/svg" viewBox="0 0 24 24">
  <defs id="defs3051">
    <style type="text/css" id="current-color-scheme">
      .ColorScheme-Text {
        color:#4d4d4d;
      }
      </style>
  </defs>
 <path style="fill:currentColor;fill-opacity:1;stroke:none" 
     d="M 18.5 4 C 17.84576 4 17.297803 4.418077 17.091797 5 L 4 5 L 4 6 C 7.601 6 10.5 8.899 10.5 12.5 C 10.5 14.405514 9.6778852 16.101777 8.3789062 17.287109 C 8.1331792 17.10687 7.83013 17 7.5 17 C 6.669 17 6 17.669 6 18.5 C 6 19.331 6.669 20 7.5 20 C 8.15424 20 8.7021971 19.581923 8.9082031 19 L 13 19 L 13 20 L 16 20 L 16 17 L 13 17 L 13 18 L 9.0878906 18 C 10.567038 16.632069 11.5 14.682903 11.5 12.5 C 11.5 9.711333 9.9893325 7.292531 7.7421875 6 L 17.091797 6 C 17.297803 6.581923 17.84576 7 18.5 7 C 19.331 7 20 6.331 20 5.5 C 20 4.669 19.331 4 18.5 4 z M 18.5 5 C 18.777 5 19 5.223 19 5.5 C 19 5.777 18.777 6 18.5 6 C 18.43075 6 18.364547 5.9861725 18.304688 5.9609375 C 18.125108 5.8852345 18 5.70775 18 5.5 C 18 5.43075 18.013832 5.3645475 18.039062 5.3046875 C 18.114763 5.1251095 18.29225 5 18.5 5 z M 7.5 18 C 7.777 18 8 18.223 8 18.5 C 8 18.777 7.777 19 7.5 19 C 7.223 19 7 18.777 7 18.5 C 7 18.223 7.223 18 7.5 18 z M 14 18 L 15 18 L 15 19 L 14 19 L 14 18 z "
     class="ColorScheme-Text"
     />
</svg>
